/* XPM */
static char *floor[] = {
"32 32 2 1",
"0 c #C2A070",
"1 c #B18A5A",
"00000000000000000000000000000000",
"00010000000000000000100000000000",
"00000000000001000000000000000000",
"00000000000000000000000001000000",
"00000010000000000000000000000000",
"00000000000000000100000000000000",
"00000000000000000000000000010000",
"00000000010000000000000000000000",
"00000000000000000000010000000000",
"00000100000000000000000000000000",
"00000000000000010000000000000000",
"00000000000000000000000010000000",
"00000000000010000000000000000000",
"00000000000000000001000000000000",
"00000001000000000000000000000000",
"00000000000000000000000100000000",
"00000000000000000000000000000000",
"00010000000000000000100000000000",
"00000000000001000000000000000000",
"00000000000000000000000001000000",
"00000010000000000000000000000000",
"00000000000000000100000000000000",
"00000000000000000000000000010000",
"00000000010000000000000000000000",
"00000000000000000000010000000000",
"00000100000000000000000000000000",
"00000000000000010000000000000000",
"00000000000000000000000010000000",
"00000000000010000000000000000000",
"00000000000000000001000000000000",
"00000000000000000000000000000000"
"00000000000000000000000000000000"
};